X:10501
T:Willafjord
R:Reel
M:4/4
L:1/8
B:Tuneworks Tunebook (https://www.tuneworks.co.uk/) p5
G:tuneworks
Z:Jon Warbrick, jon.warbrick@googlemail.com
K:D
|: B2 | "D"A2 F A2 DFA | "G"B2 G B2 DGB | "D"A2F A2 DFA | "G"EFGA "A"GFED | 
"D"A2 F A2 DFA | "G"B2 G B2 DGB | "A7"ABcd efge | "D"f2d2d2 :|
|: e2 | "D"f2 d f2 fdf | "G"gfaf gfed | "D"f2 d f2 Adf | "A"ABcd efge | 
"D"f2 d f2 fdf | "G"gfaf gfed | "A"ABcd efge | "D"f2 d2 d2 :|


